images/ico-bicro-communaute-forum.svg

<svg xmlns="http://www.w3.org/2000/svg" width="24" height="24" fill="none" viewBox="0 0 24 24"><circle cx="16.8" cy="7.20001" r="6" fill="#18a47d"/><path fill="#000638" d="M5.32401 15.84L1.76001 18.64V6.24C1.76001 6.02783 1.8443 5.82435 1.99432 5.67432C2.14435 5.52429 2.34784 5.44 2.56001 5.44H14.56C14.7722 5.44 14.9757 5.52429 15.1257 5.67432C15.2757 5.82435 15.36 6.02783 15.36 6.24V15.84H5.32401ZM4.77041 14.24H13.76V7.04H3.36001V15.348L4.77041 14.24ZM7.36001 17.44H15.5496L16.96 18.548V10.24H17.76C17.9722 10.24 18.1757 10.3243 18.3257 10.4743C18.4757 10.6243 18.56 10.8278 18.56 11.04V21.84L14.996 19.04H8.16001C7.94784 19.04 7.74435 18.9557 7.59433 18.8057C7.4443 18.6557 7.36001 18.4522 7.36001 18.24V17.44Z"/></svg>

<svg xmlns="http://www.w3.org/2000/svg" width="24" height="24" fill="none" viewBox="0 0 24 24"><circle cx="16.8" cy="7.20001" r="6" fill="#18A47D"/><path fill="#000638" d="m5.324 15.84-3.564 2.8V6.24a.8.8 0 0 1 .8-.8h12a.8.8 0 0 1 .8.8v9.6zm-.554-1.6h8.99v-7.2H3.36v8.308zm2.59 3.2h8.19l1.41 1.108V10.24h.8a.8.8 0 0 1 .8.8v10.8l-3.564-2.8H8.16a.8.8 0 0 1-.8-.8z"/></svg>
